X:1
T:Russian Folk song
T:Russian Folk song
T:(Little Minka)
T:Ludwig van Beethoven
T:Arranged by Larry Clark
C:Ludwig van Beethoven
Z:Arranged by Larry Clark
%%score 1 2
L:1/8
Q:1/4=114
M:2/4
K:Bb
V:1 treble transpose=-7 nm="Horn in F" snm="F Hn."
V:2 bass nm="Trombone" snm="Tbn."
V:1
[K:F]"^Moderato"!p! DD DD | DF ED | ^CC CC | ^CE DC | DD DD | DF ED | ^CA AC | D2 z2 | FF FF | F4 | %10
 AA AA | A3 G | FF FF | F4 | AA AA | AA Ac |!f! FF FF | FA GF | EE EE | EG FE | DD DD | DF ED | %22
 ^CA AC | D2 z2 | FF FF | FA GF | EE EE | EG FE | DD DD | DF ED | ^CA AC | D2 z2 |!p! DD DD | %33
 DF ED | ^CC CC | ^CE DC | DD DD | DF ED | ^CA AC | D2 z2 |] %40
V:2
!p! B,,B,, B,,B,, | B,,4 | D,D, D,D, | D,3 C, | B,,B,, B,,B,, | B,,4 | D,D, D,D, | B,,2 z2 | %8
 G,G, G,G, | G,B, A,G, | ^F,F, F,F, | ^F,A, G,F, | G,G, G,G, | G,B, A,G, | ^F,D DF, | G,2 z2 | %16
!f! D,D, D,D, | D,4 | F,F, F,F, | ^F,4 | B,,B,, B,,B,, | B,,3 B,, | D,D, D,D, | B,,2 z2 | %24
 D,D, D,D, | D,4 | F,F, F,F, | ^F,4 | B,,B,, B,,B,, | B,,3 B,, | D,D, D,D, | B,,B,, B,,B, | %32
!p! B,,B,, B,,B,, | B,,4 | D,D, D,D, | D,3 C, | B,,B,, B,,B,, | B,,4 | D,D, D,D, | B,,2 z2 |] %40

